X: 26
T: Div\vcibarsko [F]
O: Croatia
Z: John Chambers <jc@trillian.mit.edu> http://trillian.mit.edu/~jc/music/
M: 4/4
L: 1/16
K: F
|:\
"F"[cA][BG][A2F] [AF][GC][AF][BG] | [cA][BG][A2F] [AF][GC][AF][BG] | "C7"[c2A][B2G] [B2G][cA][BG] |\
[1,3 "F"[A2F][AF][GC] [AF][BG][c2A] :|2,4 "F"[A2F][AF][FC] [A4F] :|
|:\
"C7"[c2A][B2G] [B2G][cA][BG] | "F"[A2F][AF][GC] [AF][BG][c2A] | [c2A][B2G] "C7"[B2G][cA][BG] |\
[1,3 "F"[A2F][AF][FC] [A2F][AF][FC] :|2,4 "F"[A2F][AF][FC] [A4F] :|
|:\
"F"[c'2a][c'2a] [c'a][bg][a2f] | [c'2a][c'2a] [c'a][bg][af][bg] | "C7"[c'2a][b2g] [b2g][c'a][bg] |\
[1,3 "F"[a2f][af][gc] [af][bg][c'2a] :|2,4 "F"[a2f][af][fc] [a4f] :|
|:\
"F"[F2C][AF][FC] [AF][FC][AF][FC] | "Bb"[B2G][BG][AF] [B2G][BG][GE] |\
[1,3 "F"[FC][GE][A2F] [AF][FC][AF][cF] | "C7"[BG][AF][GE][FD] [G4C] :|\
[2,4 "F"[BG][AF][GE][FC] "G7"[GE][FD][EC][F=B,] | "C"[G2C][GC][FC] [G4C] :|

%%sep 1 1 200


